X:1
T:Hommage  la famille Meyrand
M:6/8
L:1/8
Q:120
C:(c) Greg Anderson
R:Jig
N:Written for our good friends, the family of Pierre and Franoise
N:Meyrand, who greatly eased our arrival in France and took us on two
N:remarkable trips to the Pyrnes Mountains
K:D
A|def dcd|BdA- A2 A|G2 G FGF|EFG ABc|def dcd|
1BdA- A2 a|gfe dAc|d3- d2 :|2BdA- A2 a|gfe A2 c|d3- d2 f
|:ad'a fed|gfg efg|fed cBA|GFG E3|DEF DFD|
Ada gfg|ad'a gfe|1d3- d2 d:|2d3-d2 ||
